X:1
T:Meet in the Morning
T:Meet in the Morning
T:William James Kirkpatrick
T:Frances Jane (Fanny) Crosby, 1888
T:Public Domain Courtesy of the Cyber Hymnal™
T:Public Domain Courtesy of the Cyber Hymnal™
C:William James Kirkpatrick
Z:Public Domain
Z:Courtesy of the Cyber Hymnal™
%%score ( 1 2 ) ( 3 4 )
L:1/8
Q:1/4=108
M:4/4
K:G
V:1 treble 
V:2 treble 
V:3 bass 
V:4 bass 
V:1
 D>[DG] | [GB]2 [GB]2 [GB][DA][DG][DA] | [GB]2 [DG]2 [EG]2 [CE]2 | [B,D]2 [DG]2 [CG][CA][DB][Ec] | %4
w: 1.~We are|march- ing on- ward to the|heav’n- ly land, To|meet each o- ther in the|
w: 2.~We are|trav- ’ling on- ward from a|world of care, To|meet each o- ther in the|
w: 3.~We are|trav- ’ling on- ward, and the|way grows bright, We’ll|meet each o- ther in the|
w: 4.~Where the|hills are bloom- ing on the|o- ther shore, We’ll|meet each o- ther in the|
w: 5.~In the|bound- less rap- ture of a|Sav- ior’s love We’ll|meet each o- ther in the|
 [Fd]4 !fermata![FA]2 [Fe]>[Fe] | [Gd]2 [GB]2 [GB][DA][DG][DA] | [GB]2 [DG]2 [EG]2 [CE]2 | %7
w: morn- ing; We are|press- ing for- ward to the|gold- en strand, Where|
w: morn- ing; Oh, the|time is com- ing, we shall|soon be there, And|
w: morn- ing; Where our|friends are wait- ing, at the|gate of life, And|
w: morn- ing! Where the|heart’s deep long- ing will be|felt no more, And|
w: morn- ing; Then we’ll|sing His glo- ry in the|realms a- bove, And|
 [B,D]2 [DG]2 [DG][GB][Gd][GB] | [FA]4 !fermata![DG]2 ||"^Refrain" [Gd]>[Gd] | d4 [Gd]2 [Gd]>[Gd] | %11
w: joy will crown us in the|morn- ing.|||
w: joy will crown us in the|morn- ing.|||
w: joy will crown us in the|morn- ing.|In the|morn- ing, in the|
w: joy will crown us in the|morn- ing.|||
w: joy will crown us in the|morn- ing.|||
 [Ge]4 !fermata![Gd]2 G[GA] | [GB][GB][GB][GB] [GB][Gd][Gd][GB] | [FA]4 !fermata![Fd]2 [DG][DA] | %14
w: |||
w: |||
w: morn- ing, We will|ga- ther with the faith- ful in the|morn- ing; Where the|
w: |||
w: |||
 [GB]2 [Gd]2 [Gd][GB][DG][DA] | [GB]2 [DG]2 [EG]2 [CE]2 | [B,D]2 [DG]2 [DG][GB][Gd][GB] | %17
w: |||
w: |||
w: night of sor- row shall be|rolled a- way, And|joy will crown us in the|
w: |||
w: |||
 [FA]4 !fermata![DG]2 |] %18
w: |
w: |
w: morn- ing.|
w: |
w: |
V:2
 D3/2 x/ | x8 | x8 | x8 | x8 | x8 | x8 | x8 | x6 || x2 | (G2 F2) x4 | x6 G x | x8 | x8 | x8 | x8 | %16
 x8 | x6 |] %18
V:3
 [G,B,]>[F,B,] | [G,D]2 [G,D]2 [G,D][G,C][G,B,][G,C] | [G,D]2 [G,B,]2 [C,C]2 [C,G,]2 | %3
 [G,,G,]2 [G,,B,]2 [G,B,][G,C][G,B,][G,B,] | [D,A,]4 !fermata![D,D]2 [D,C]>[D,C] | %5
 [G,B,]2 [G,D]2 [G,D][G,C][G,B,][G,C] | [G,D]2 [G,B,]2 [C,C]2 [C,G,]2 | %7
 [D,G,]2 [D,B,]2 [D,B,][D,D][D,B,][D,B,] | [D,C]4 !fermata![G,,G,B,]2 || [G,B,]>[G,B,] | %10
 ([G,B,]2 [A,C]2) [B,D]2 [G,B,]>[G,B,] | C4 !fermata![G,B,]2 [G,B,][G,C] | %12
 [G,D][G,D][G,D][G,D] [G,D][G,B,][G,B,][G,D] | [D,D]4 !fermata![D,A,]2 [G,B,][G,C] | %14
 [G,D]2 [G,B,]2 [G,B,][G,D][G,B,][F,C] | [G,D]2 [G,B,]2 [C,C]2 [C,G,]2 | %16
 [D,G,]2 [D,B,]2 [D,B,][D,D][D,B,][D,B,] | [D,C]4 !fermata![G,,G,B,]2 |] %18
V:4
 x2 | x8 | x8 | x8 | x8 | x8 | x8 | x8 | x6 || x2 | x8 | (C,2 D,2) x4 | x8 | x8 | x8 | x8 | x8 | %17
 x6 |] %18

